resources/images/param_hilbertcurve.svg

<svg xmlns="http://www.w3.org/2000/svg" width="24" height="24" viewBox="0 0 24 24"><path d="M22.5,19.672l-2.808-2.808L22.5,14.056v-.041M19.672,22.5l-2.808-2.808L14.056,22.5h-.041M22.5,14.015,16.157,7.672,13.328,10.5l3.536,3.536-2.828,2.828L10.5,13.328,7.672,16.157,14.015,22.5m1.627-21,6.172,6.172.686-.687M6.985,22.5l.687-.686L1.5,15.642M1.5,9.9l3.49,3.39S7.555,10.5,7.672,10.5,4.136,6.964,4.136,6.964L6.964,4.136,10.5,7.672l2.828-2.829L9.985,1.5" style="fill:none;stroke:#009688;stroke-linecap:round;stroke-linejoin:round"/><rect x="1.5" y="1.5" width="21" height="21" rx="2" style="fill:none;stroke:#949494;stroke-linecap:round;stroke-linejoin:round"/></svg>

<svg xmlns="http://www.w3.org/2000/svg" viewBox="0 0 24 24"><path d="M22.5,19.67l-2.81-2.81,2.81-2.8V14M19.67,22.5l-2.81-2.81-2.8,2.81H14M22.5,14,16.16,7.67,13.33,10.5,16.86,14,14,16.86,10.5,13.33,7.67,16.16,14,22.5m1.63-21,6.17,6.17L22.5,7M7,22.5l.68-.69L1.5,15.64m0-5.74L5,13.29S7.56,10.5,7.67,10.5,4.14,7,4.14,7L7,4.14,10.5,7.67l2.83-2.83L10,1.5" style="fill:none;stroke:#009688;stroke-linecap:round;stroke-linejoin:round"/><rect x="1.5" y="1.5" width="21" height="21" rx="2" style="fill:none;stroke:#949494;stroke-linecap:round;stroke-linejoin:round"/></svg>
